X: 33430
T: Quinn's
R: jig
M: 6/8
K: Gmajor
E|DBB B2 d|cAA A2 c|BGG GFG|ABG FED|
DBB Bcd|cAA ABc|dGG DGG|BGG G2:|
A|Bcd def|gfe fdB|ded dBG|GAG FED|
Bcd def|gfe fdB|dGG DGG|BGG G2:|

